src/assets/images/ic_map_pin.svg

<svg width="44" height="51" viewBox="0 0 44 51" fill="none" xmlns="http://www.w3.org/2000/svg">
<g filter="url(#filter0_f)">
<path fill-rule="evenodd" clip-rule="evenodd" d="M23.1822 38L20.884 36.7364L27.936 31.5C26.7826 30.5311 25.003 28.0042 26.2166 26.7684C28.0349 24.9168 32.3717 24.6201 35.213 25.4116C38.0543 26.2032 38.9398 29.0448 37.2883 30.6583C35.809 32.1037 32.2111 32.1037 31.097 31.9644L23.1822 38Z" fill="black" fill-opacity="0.2"/>
</g>
<g filter="url(#filter1_d)">
<path fill-rule="evenodd" clip-rule="evenodd" d="M22.884 30.4552C28.4905 29.9499 32.884 25.238 32.884 19.5C32.884 13.4249 27.9592 8.5 21.884 8.5C15.8089 8.5 10.884 13.4249 10.884 19.5C10.884 25.238 15.2775 29.9499 20.884 30.4552V37.1338C20.2862 37.3067 19.884 37.6299 19.884 38C19.884 38.5523 20.7795 39 21.884 39C22.9886 39 23.884 38.5523 23.884 38C23.884 37.6299 23.4818 37.3067 22.884 37.1338V30.4552Z" fill="#277EFF"/>
</g>
<path fill-rule="evenodd" clip-rule="evenodd" d="M21.884 23.5C24.0932 23.5 25.884 21.7091 25.884 19.5C25.884 17.2909 24.0932 15.5 21.884 15.5C19.6749 15.5 17.884 17.2909 17.884 19.5C17.884 21.7091 19.6749 23.5 21.884 23.5Z" fill="white"/>
<defs>
<filter id="filter0_f" x="15.4475" y="19.5634" width="28.105" height="23.8731" filterUnits="userSpaceOnUse" color-interpolation-filters="sRGB">
<feFlood flood-opacity="0" result="BackgroundImageFix"/>
<feBlend mode="normal" in="SourceGraphic" in2="BackgroundImageFix" result="shape"/>
<feGaussianBlur stdDeviation="2.71828" result="effect1_foregroundBlur"/>
</filter>
<filter id="filter1_d" x="0.884033" y="0.5" width="42" height="50.5" filterUnits="userSpaceOnUse" color-interpolation-filters="sRGB">
<feFlood flood-opacity="0" result="BackgroundImageFix"/>
<feColorMatrix in="SourceAlpha" type="matrix" values="0 0 0 0 0 0 0 0 0 0 0 0 0 0 0 0 0 0 127 0"/>
<feOffset dy="2"/>
<feGaussianBlur stdDeviation="5"/>
<feColorMatrix type="matrix" values="0 0 0 0 0 0 0 0 0 0 0 0 0 0 0 0 0 0 0.18 0"/>
<feBlend mode="normal" in2="BackgroundImageFix" result="effect1_dropShadow"/>
<feBlend mode="normal" in="SourceGraphic" in2="effect1_dropShadow" result="shape"/>
</filter>
</defs>
</svg>

<svg width="44" height="51" fill="none" xmlns="http://www.w3.org/2000/svg"><g filter="url(#filter0_f)"><path fill-rule="evenodd" clip-rule="evenodd" d="M23.182 38l-2.298-1.264 7.052-5.236c-1.153-.969-2.933-3.496-1.72-4.732 1.819-1.851 6.156-2.148 8.997-1.356 2.841.791 3.727 3.633 2.075 5.246-1.479 1.446-5.077 1.446-6.191 1.306L23.182 38z" fill="#000" fill-opacity=".2"/></g><g filter="url(#filter1_d)"><path fill-rule="evenodd" clip-rule="evenodd" d="M22.884 30.455c5.607-.505 10-5.217 10-10.955 0-6.075-4.925-11-11-11s-11 4.925-11 11c0 5.738 4.393 10.45 10 10.955v6.679c-.598.173-1 .496-1 .866 0 .552.895 1 2 1s2-.448 2-1c0-.37-.402-.693-1-.866v-6.679z" fill="#277EFF"/></g><path fill-rule="evenodd" clip-rule="evenodd" d="M21.884 23.5a4 4 0 100-8 4 4 0 000 8z" fill="#fff"/><defs><filter id="filter0_f" x="15.447" y="19.563" width="28.105" height="23.873" filterUnits="userSpaceOnUse" color-interpolation-filters="sRGB"><feFlood flood-opacity="0" result="BackgroundImageFix"/><feBlend in="SourceGraphic" in2="BackgroundImageFix" result="shape"/><feGaussianBlur stdDeviation="2.718" result="effect1_foregroundBlur"/></filter><filter id="filter1_d" x=".884" y=".5" width="42" height="50.5" filterUnits="userSpaceOnUse" color-interpolation-filters="sRGB"><feFlood flood-opacity="0" result="BackgroundImageFix"/><feColorMatrix in="SourceAlpha" values="0 0 0 0 0 0 0 0 0 0 0 0 0 0 0 0 0 0 127 0"/><feOffset dy="2"/><feGaussianBlur stdDeviation="5"/><feColorMatrix values="0 0 0 0 0 0 0 0 0 0 0 0 0 0 0 0 0 0 0.18 0"/><feBlend in2="BackgroundImageFix" result="effect1_dropShadow"/><feBlend in="SourceGraphic" in2="effect1_dropShadow" result="shape"/></filter></defs></svg>
